!!!!SEGMENT: pl-kk--kk-i-68--006_anonim--missa-benedictus.krn
!!!cenid: 17xx:2278
!!!COM: Anonim
!!!COM-rismID: pe30004985
!!!CDT:
!!!CNT:
!!!OPR: Missa
!!!OTL: Benedictus
!!!OMV: 006
!!!PDT:
!!!AGN: Sacred; Mass
!!!SMS-siglum: PL-Kk
!!!SMS-shelfmark: Kk.I.68
!!!SMS-shelfwork: 001-006 M
!!!SMS-variant: Baſso PL-Kk Kk.I.68:0012
!!!SMS-altvar: Baſso PL-Kk Kk.I.68:0017
!!!NIFC-rismSourceID: 1001154624
!!!NIFC-islandoraID: pl-kk:2850
!!!URL-pdf-islandora: https://repozytorium.nifc.pl/islandora/object/pl-kk%3A2850/datastream/PDF/view
!!!URL-scan: https://polish.musicsources.pl/pl/lokalizacje/galeria/rekopisy/6139 @EN{Scan on Polish Music Sources Website} @PL{Skany w portalu Dziedzictwo Muzyki Polskiej w otwartym dostępie}
!!!ONB-nifc: UWAGA: części Mszy: 1. Protexisti me, 2. Kyrie, 3. Alleluia, 4. Posuisti Domine, 5. Sanctus, 6. Benedictus, 7. Agnus Dei, 8. Dona nobis, 9. Deo gratias
!!!AIN: 1 empty 2 tenor
!!!key:
**kern	**text	**kern	**text	**kern	**text
*part3	*part3	*part2	*part2	*part1	*part1
*staff3	*staff3	*staff2	*staff2	*staff1	*staff1
*Iempty	*	*Itenor	*	*Itenor	*
*I"Baſso	*	*I"Tenore Secundo	*	*I"Tenore Primo	*
*I'B	*	*I'T 2	*	*I'T 1	*
*clefF4	*	*clefC4	*	*clefC4	*
*k[]	*	*k[]	*	*k[]	*
*C:	*	*C:	*	*C:	*
*M3/2	*	*M3/2	*	*M3/2	*
=1	=1	=1	=1	=1	=1
*	*	*	*	*2\right	*
2C/	Be-	2G/	Be-	2c\	Be-
*2\right	*	*2\right	*	*	*
2E\	.	2c\	.	2G/	.
2F\	-ne-	2c\	-ne-	2A/	-ne-
=2	=2	=2	=2	=2	=2
1E	-dic-	1c	-dic-	1G	-dic-
2D\	.	2B\	.	2F/	.
=3	=3	=3	=3	=3	=3
2C/	-tus	2G/	-tus	2E/	-tus
2r	.	2r	.	2r	.
2r	.	2c\	qui	2e\	qui
=4	=4	=4	=4	=4	=4
2r	.	2c\	ve-	2e\	ve-
2r	.	2B\	-nit	2d\	-nit
2G\	qui	2d\	qui	2f\	qui
=5	=5	=5	=5	=5	=5
2c\	ve-	2d\	ve-	2f\	ve-
2C/	-nit	2c\	-nit	2e\	-nit
4C/	in	4c\	in	4e\	in
4BB/	.	4d\	.	4f\	.
!	!	!LO:LB:g=original	!	!	!
=6	=6	=6	=6	=6	=6
2.C/	no-	2.e\	no-	2.g\	no-
4D/	-mi-	4d\	-mi-	4f\	-mi-
2E\	-ne	2c\	-ne	2e\	-ne
!LO:LB:g=original	!	!	!	!LO:LB:g=original	!
=7	=7	=7	=7	=7	=7
1F	Do-	1d	Do-	1f	Do-
2F#X\	-mi-	2c\	-mi-	2e\	-mi-
=8	=8	=8	=8	=8	=8
1G	-ni	1B	-ni	1d	-ni
2r	.	2r	.	2r	.
=9	=9	=9	=9	=9	=9
1G	Be-	2B\	Be-	2d\	Be-
.	.	2d\	.	2f\	.
2G\	-ne-	2B\	-ne-	2d\	-ne-
=10	=10	=10	=10	=10	=10
2c\	-dic-	2c\	-dic-	2e\	-Dic-
2G\	.	2d\	.	2f\	.
2C/	-tus	2c\	-tus	2e\	-tus
=11	=11	=11	=11	=11	=11
2C/	qui	4c\	qui	4e\	qui
.	.	4d\	.	4f\	.
2E\	ve-	4e\	ve-	(4g\	ve-
.	.	4d\	.	4f\)	.
2F\	.	4d\	.	(4f\	.
.	.	4c\	.	4e\)	.
=12	=12	=12	=12	=12	=12
2G\	-nit	2B\	-nit	2d\	-nit
2r	.	2r	.	2r	.
!	!	!LO:LB:g=original	!	!	!
=-	=-	=-	=-	=-	=-
2G\	in	4G/	in	4B\	in
.	.	4A/	.	4c\	.
!	!	!	!	!LO:LB:g=original	!
=13	=13	=13	=13	=13	=13
2G\	no-	4B\	no-	4d\	no-
.	.	4c\	.	4e\	.
2B\	.	4d\	.	4f\	.
.	.	4B\	.	4d\	.
2G\	.	4c\	.	4e\	.
.	.	4d\	.	4f\	.
!LO:LB:g=original	!	!	!	!	!
=14	=14	=14	=14	=14	=14
2C/	.	4c\	.	4e\	.
.	.	4d\	.	4f\	.
2E/	.	4e\	.	4g\	.
.	.	4c\	.	4e\	.
2C/	.	4d\	.	4f\	.
.	.	4e\	.	4g\	.
=15	=15	=15	=15	=15	=15
4F\	.	2.A/	.	2.f\	.
4G\	.	.	.	.	.
4A\	.	.	.	.	.
4B\	-mi-	4A/	-mi-	4f\	-mi-
2c\	-ni	2G/	-ne	2e\	-ne
=16	=16	=16	=16	=16	=16
2A\	Do-	2d\	Do-	2f\	Do-
2G\	.	2c\	.	2e\	.
2G\	-mi-	2B\	-mi-	2d\	-mi-
=17	=17	=17	=17	=17	=17
!	!	!	!	!LO:N:vis=2.	!
2C/	-ni	2c\	-ni	2e\	-ni
2r	.	2r	.	2r	.
2G\	in	4G/	in	4B\	in
.	.	4A/	.	4c\	.
!	!	!LO:LB:g=original	!	!LO:LB:g=original	!
=18	=18	=18	=18	=18	=18
2G\	no-	4B\	no-	4d\	no-
.	.	4c\	.	4e\	.
2B\	.	4d\	.	4f\	.
.	.	4B\	.	4d\	.
2G\	.	4c\	.	4e\	.
.	.	4d\	.	4f\	.
=19	=19	=19	=19	=19	=19
2C/	.	4c\	.	4e\	.
.	.	4d\	.	4f\	.
2E/	.	4e\	.	4g\	.
.	.	4c\	.	4e\	.
2C/	.	4d\	.	4f\	.
.	.	4e\	.	4g\	.
!LO:LB:g=original	!	!	!	!	!
=20	=20	=20	=20	=20	=20
4F\	.	2.A/	.	2.f\	.
4G\	.	.	.	.	.
4A\	.	.	.	.	.
4B\	-mi-	4A/	-mi-	4f\	-mi-
2c\	-ne	2G/	-ne	2e\	-ne
=21	=21	=21	=21	=21	=21
2A\	Do-	2d\	Do-	2f\	Do-
2.G\	.	2c\	.	2e\	.
.	.	2B\	-mi-	2d\	-mi-
4G\	-mi-	.	.	.	.
=22	=22	=22	=22	=22	=22
!LO:TX:b:t=Osanna Da Capo	!	!LO:TX:b:t=Osanna da\nCapo	!	!LO:TX:b:t=Osanna da\nCapo	!
1.C	-ni	1.c	-ni	1.e	-ni
!LO:LB:g=original	!	!LO:LB:g=original	!	!LO:LB:g=original	!
==	==	==	==	==	==
*-	*-	*-	*-	*-	*-
!!!system-decoration: [(s1,s2,s3)]
!!!ENC: Marta Chmielewska
!!!END: 2021-08-06
!!!ENC: Tomasz Grochalski
!!!END: 2021-07-09
!!!YEC: Copyright 2022 Narodowy Instytut Fryderyka Chopina (https://polishscores.org)
!!!YEM: Licence CC BY 4.0 (https://creativecommons.org/licenses/by/4.0)
